data/styles/clear/style-night/symbols/bcontrol-m.svg

<svg height="24" viewBox="0 0 24 24" width="24"><g fill="none" fill-rule="evenodd"><circle cx="12" cy="12" fill="#fff" opacity=".4" r="12"/><circle cx="12" cy="12" fill="#3d3d36" r="11"/><path d="m10.2857143 17.1333333v.9333334h3.4285714v-11.20000003h-3.4285714v10.26666663.9333334l1.7142857-.9333334 1.7142857.9333334v-1.8666667l-1.7142857-.9333333-1.7142857.9333333zm4.5714286.9333334 1.1428571.9333333h-8l1.14285714-.9333333v-11.20000003l2.85714286-1.86666667 2.8571429 1.86666667zm-4.5714286-9.33333337 1.7142857-.93333333 1.7142857.93333333v1.86666667l-1.7142857-.93333333-1.7142857.93333333zm0 3.73333337 1.7142857-.9333334 1.7142857.9333334v1.8666666l-1.7142857-.9333333-1.7142857.9333333z" fill="#fff" opacity=".6"/></g></svg>

<svg width="24" height="24" viewBox="0 0 24 24">
  <g fill="none" fill-rule="evenodd">
    <circle cx="12" cy="12" r="12" fill="#FFF" opacity=".4"/>
    <circle cx="12" cy="12" r="11" fill="#3D3C36"/>
    <path fill="#FFF" d="M14.8571429,18.0666667 L16,19 L8,19 L9.14285714,18.0666667 L9.14285714,6.86666667 L14.8571429,6.86666667 L14.8571429,18.0666667 Z M12,5 L14.8571429,6.86666667 L9.14285714,6.86666667 L12,5 Z M10.2857143,6.86666667 L13.7142857,6.86666667 L13.7142857,18.0666667 L10.2857143,18.0666667 L10.2857143,6.86666667 Z M10.2857143,8.73333333 L12,7.8 L13.7142857,8.73333333 L13.7142857,10.6 L12,9.66666667 L10.2857143,10.6 L10.2857143,8.73333333 Z M10.2857143,12.4666667 L12,11.5333333 L13.7142857,12.4666667 L13.7142857,14.3333333 L12,13.4 L10.2857143,14.3333333 L10.2857143,12.4666667 Z M10.2857143,16.2 L12,15.2666667 L13.7142857,16.2 L13.7142857,18.0666667 L12,17.1333333 L10.2857143,18.0666667 L10.2857143,16.2 Z" opacity=".6"/>
  </g>
</svg>
